src/assets/1996.svg

<svg width="2980" height="2937" fill="none" xmlns="http://www.w3.org/2000/svg">
  <g filter="url(#filter0_d)">
    <path d="M1751.66 591.851c-54.87-54.632 104.19-172.014-82.77-225.046C1419.42 296.047 653.22 0 653.22 0L25 1186.86s217.754 260.43 278.281 326.73c60.527 66.3 540.3 275.95 646.122 324.96 105.827 49 144.447 3.09 142.517 22.76-1.94 19.68-103.311 44.12 0 152.42 103.3 108.29 187.02 128.13 321.63 189.28 134.61 61.16-154.41 563.05 386.33 649.24 540.73 86.2 473.47-372.46 512.07-439.98 38.61-67.53 155.58 35.67 216.11 0 60.52-35.68 52.41-172.4 122.59-222.57 70.19-50.17 92.16-26.37 186.28-57.89s136.82-234.98 110.34-282.47c-26.48-47.49-100.83-127.93-114.74-154.95-13.66-26.53-19.92-43.14-35.75-85.17l-.87-2.31c-16.48-43.74 20.41-86.96 57.98-164.67 37.56-77.72 106.45-167.96 7.32-255.38-99.13-87.41-236.75 28.26-296-58.53-59.25-86.8 9-147.952-122.67-203.272-131.67-55.32-383.71 119.152-437.44 78.212-53.73-40.941 25.6-139.941-11.63-192.688-37.23-52.747-186.94-164.098-241.81-218.731z" fill="#fff"/>
  </g>
  <defs>
    <filter id="filter0_d" x="0" y="0" width="2980" height="2937" filterUnits="userSpaceOnUse" color-interpolation-filters="sRGB">
      <feFlood flood-opacity="0" result="BackgroundImageFix"/>
      <feColorMatrix in="SourceAlpha" values="0 0 0 0 0 0 0 0 0 0 0 0 0 0 0 0 0 0 127 0"/>
      <feOffset dy="49"/>
      <feGaussianBlur stdDeviation="12.5"/>
      <feColorMatrix values="0 0 0 0 0 0 0 0 0 0 0 0 0 0 0 0 0 0 0.25 0"/>
      <feBlend in2="BackgroundImageFix" result="effect1_dropShadow"/>
      <feBlend in="SourceGraphic" in2="effect1_dropShadow" result="shape"/>
    </filter>
  </defs>
</svg>

<svg width="2980" height="2937" viewBox="0 0 2980 2937" fill="none" xmlns="http://www.w3.org/2000/svg">
<g filter="url(#filter0_d)">
<path d="M1751.66 591.851C1696.79 537.219 1855.85 419.837 1668.89 366.805C1419.42 296.047 653.22 0 653.22 0L25 1186.86C25 1186.86 242.754 1447.29 303.281 1513.59C363.808 1579.89 843.581 1789.54 949.403 1838.55C1055.23 1887.55 1093.85 1841.64 1091.92 1861.31C1089.98 1880.99 988.609 1905.43 1091.92 2013.73C1195.22 2122.02 1278.94 2141.86 1413.55 2203.01C1548.16 2264.17 1259.14 2766.06 1799.88 2852.25C2340.61 2938.45 2273.35 2479.79 2311.95 2412.27C2350.56 2344.74 2467.53 2447.94 2528.06 2412.27C2588.58 2376.59 2580.47 2239.87 2650.65 2189.7C2720.84 2139.53 2742.81 2163.33 2836.93 2131.81C2931.05 2100.29 2973.75 1896.83 2947.27 1849.34C2920.79 1801.85 2846.44 1721.41 2832.53 1694.39C2818.87 1667.86 2812.61 1651.25 2796.78 1609.22L2795.91 1606.91C2779.43 1563.17 2816.32 1519.95 2853.89 1442.24C2891.45 1364.52 2960.34 1274.28 2861.21 1186.86C2762.08 1099.45 2624.46 1215.12 2565.21 1128.33C2505.96 1041.53 2574.21 980.378 2442.54 925.058C2310.87 869.738 2058.83 1044.21 2005.1 1003.27C1951.37 962.329 2030.7 863.329 1993.47 810.582C1956.24 757.835 1806.53 646.484 1751.66 591.851Z" fill="white"/>
</g>
<defs>
<filter id="filter0_d" x="0" y="0" width="2980" height="2937" filterUnits="userSpaceOnUse" color-interpolation-filters="sRGB">
<feFlood flood-opacity="0" result="BackgroundImageFix"/>
<feColorMatrix in="SourceAlpha" type="matrix" values="0 0 0 0 0 0 0 0 0 0 0 0 0 0 0 0 0 0 127 0"/>
<feOffset dy="49"/>
<feGaussianBlur stdDeviation="12.5"/>
<feColorMatrix type="matrix" values="0 0 0 0 0 0 0 0 0 0 0 0 0 0 0 0 0 0 0.25 0"/>
<feBlend mode="normal" in2="BackgroundImageFix" result="effect1_dropShadow"/>
<feBlend mode="normal" in="SourceGraphic" in2="effect1_dropShadow" result="shape"/>
</filter>
</defs>
</svg>
